foodtherapy/img/header/logo-gray.svg

<svg width="303" height="74" viewBox="0 0 303 74" fill="none" xmlns="http://www.w3.org/2000/svg">
<path d="M27.1745 34.7161C27.1745 34.7161 25.3098 22.1992 39.7175 22.1992C54.1252 22.1992 52.2604 36.8023 52.2604 36.8023C52.2604 36.8023 52.4298 43.1859 39.7175 55.5776C28.9765 66.048 27.1745 65.9437 27.1745 65.9437" stroke="white" stroke-width="1.88095" stroke-linecap="round" stroke-linejoin="round"/>
<path d="M27.1197 34.7349C27.1197 34.7349 28.9761 22.1992 14.6333 22.1992C0.290401 22.1992 2.14467 36.821 2.14467 36.821C2.14467 36.821 1.97743 43.213 14.6333 55.6214C25.3261 66.1043 27.1197 66 27.1197 66" stroke="white" stroke-width="1.88095" stroke-linecap="round" stroke-linejoin="round"/>
<path d="M27.1769 34.7147C27.1769 34.7147 25.0864 28.4563 29.2674 26.3701" stroke="#9BA2AC" stroke-width="1.88095" stroke-linecap="round" stroke-linejoin="round"/>
<path fill-rule="evenodd" clip-rule="evenodd" d="M25.086 26.371C40.8525 29.8048 37.629 7.5957 37.629 7.5957C37.629 7.5957 17.3261 16.489 25.086 26.371Z" stroke="#9BA2AC" stroke-width="1.88095" stroke-linecap="round" stroke-linejoin="round"/>
<path d="M27.1778 22.1981C27.1778 22.1981 25.8441 21.4429 33.4493 13.8535" stroke="#9BA2AC" stroke-width="0.940477" stroke-linecap="round" stroke-linejoin="round"/>
<path fill-rule="evenodd" clip-rule="evenodd" d="M73.8286 54.9911V34.7054H79.7154V32.0893H73.8286V31.0796C73.8011 30.0374 73.9808 29.0001 74.3575 28.0276C74.621 27.2965 75.1126 26.669 75.7602 26.2377C76.2681 25.9194 76.8175 25.6723 77.3929 25.5034C77.9101 25.3633 78.4437 25.2931 78.9796 25.2948C79.3498 25.2834 79.7202 25.3142 80.0834 25.3865V22.6328C79.6139 22.5402 79.1363 22.494 78.6577 22.4951C77.8588 22.4953 77.0631 22.5955 76.2892 22.7935C75.3917 23.0419 74.5328 23.4126 73.7366 23.8949C72.737 24.5226 71.9575 25.4448 71.5061 26.5339C70.8995 27.954 70.6092 29.4886 70.6553 31.0317V32.0873H67.7578V34.7033H70.6594V54.989H73.8328L73.8286 54.9911ZM83.4867 52.0308C85.1997 53.7459 87.3855 54.9133 89.7657 55.3844C92.1459 55.8555 94.6127 55.609 96.852 54.6762C99.0913 53.7435 101.002 52.1667 102.34 50.1468C103.678 48.1268 104.384 45.7551 104.367 43.3337C104.404 41.7421 104.107 40.1603 103.495 38.6901C102.883 37.2199 101.969 35.8938 100.813 34.7972C98.4741 32.5871 95.3757 31.3553 92.1549 31.3553C88.9341 31.3553 85.8357 32.5871 83.4972 34.7972C82.3442 35.8959 81.4336 37.2226 80.8238 38.6925C80.214 40.1625 79.9184 41.7432 79.9559 43.3337C79.9149 44.9475 80.2072 46.5525 80.8146 48.0488C81.4221 49.545 82.3317 50.9005 83.4867 52.0308ZM85.7632 36.802C86.6011 35.9655 87.5959 35.3019 88.6908 34.8492C89.7857 34.3965 90.9593 34.1635 92.1445 34.1635C93.3297 34.1635 94.5032 34.3965 95.5981 34.8492C96.693 35.3019 97.6878 35.9655 98.5257 36.802C99.3844 37.6576 100.06 38.6786 100.51 39.803C100.961 40.9273 101.178 42.1315 101.147 43.342C101.185 44.5775 100.972 45.8079 100.522 46.9593C100.071 48.1108 99.3922 49.1595 98.5257 50.0427C97.6916 50.886 96.6981 51.5555 95.6027 52.0125C94.5072 52.4695 93.3318 52.7048 92.1445 52.7048C90.9572 52.7048 89.7817 52.4695 88.6863 52.0125C87.5908 51.5555 86.5973 50.886 85.7632 50.0427C84.9023 49.1566 84.2286 48.1068 83.7822 46.9557C83.3358 45.8046 83.1259 44.5757 83.1648 43.342C83.1339 42.1334 83.3482 40.9311 83.7947 39.8072C84.2412 38.6833 84.9108 37.6611 85.7632 36.802ZM109.885 52.0308C111.598 53.7459 113.784 54.9133 116.164 55.3844C118.545 55.8555 121.011 55.609 123.251 54.6762C125.49 53.7435 127.4 52.1667 128.739 50.1468C130.077 48.1268 130.782 45.7551 130.765 43.3337C130.801 41.7413 130.503 40.1591 129.889 38.6888C129.275 37.2186 128.359 35.8929 127.201 34.7972C124.862 32.5871 121.764 31.3553 118.543 31.3553C115.322 31.3553 112.224 32.5871 109.885 34.7972C108.732 35.8959 107.822 37.2226 107.212 38.6925C106.602 40.1625 106.307 41.7432 106.344 43.3337C106.304 44.9483 106.598 46.5538 107.208 48.0501C107.817 49.5463 108.728 50.9014 109.885 52.0308ZM112.162 36.802C113.854 35.1158 116.147 34.1687 118.538 34.1687C120.929 34.1687 123.222 35.1158 124.914 36.802C125.773 37.6576 126.448 38.6786 126.899 39.803C127.349 40.9273 127.566 42.1315 127.535 43.342C127.573 44.5775 127.36 45.8079 126.91 46.9593C126.459 48.1108 125.78 49.1595 124.914 50.0427C124.08 50.8844 123.087 51.5526 121.993 52.0087C120.898 52.4647 119.724 52.6995 118.538 52.6995C117.352 52.6995 116.178 52.4647 115.083 52.0087C113.989 51.5526 112.996 50.8844 112.162 50.0427C111.301 49.1566 110.627 48.1068 110.181 46.9557C109.735 45.8046 109.525 44.5757 109.563 43.342C109.533 42.1334 109.747 40.9311 110.193 39.8072C110.64 38.6833 111.31 37.6611 112.162 36.802ZM142.905 55.5502C144.567 55.5971 146.209 55.1684 147.636 54.3145C149.062 53.4606 150.214 52.2172 150.955 50.7312H151.045L150.909 52.3834V54.9994H153.943V22.7267H150.807V34.1546C150.802 34.739 150.848 35.3226 150.947 35.8987H150.853C150.166 34.5108 149.086 33.3541 147.748 32.5712C146.394 31.7626 144.843 31.3418 143.264 31.355C141.838 31.3099 140.419 31.5855 139.114 32.1615C137.809 32.7374 136.65 33.599 135.724 34.6824C133.709 37.1398 132.677 40.2541 132.826 43.4255C132.68 46.5761 133.649 49.6777 135.563 52.1873C136.439 53.2778 137.558 54.1486 138.831 54.73C140.105 55.3114 141.497 55.5873 142.896 55.5356L142.905 55.5502ZM138.216 36.6872C138.862 35.9017 139.676 35.2712 140.599 34.8422C141.522 34.4132 142.53 34.1968 143.549 34.2089C144.606 34.1644 145.658 34.3902 146.603 34.8648C147.549 35.3394 148.358 36.0471 148.953 36.9209C150.254 38.8228 150.922 41.0856 150.861 43.3879C151.055 45.9133 150.292 48.4192 148.723 50.4099C148.061 51.1616 147.243 51.7605 146.326 52.1647C145.409 52.5689 144.415 52.7688 143.413 52.7506C142.388 52.7743 141.373 52.556 140.449 52.1133C139.526 51.6706 138.72 51.0161 138.099 50.2034C136.654 48.2504 135.93 45.8585 136.052 43.4338C135.915 40.993 136.685 38.5875 138.216 36.6789V36.6872ZM160.45 50.387C160.753 51.2952 161.255 52.1247 161.919 52.8153C162.584 53.5059 163.394 54.0404 164.29 54.3799C165.035 54.6987 165.815 54.9297 166.613 55.0683C167.305 55.1755 168.004 55.2292 168.703 55.2289C169.227 55.2115 169.749 55.1655 170.267 55.0912V51.1359C169.918 51.2009 169.564 51.2316 169.209 51.2277C168.817 51.2279 168.425 51.1972 168.037 51.1359C167.591 51.0536 167.158 50.9133 166.749 50.7186C166.282 50.5107 165.861 50.2146 165.507 49.8466C165.107 49.3999 164.802 48.8769 164.61 48.3091C164.351 47.5644 164.226 46.7797 164.242 45.9914V35.6233H169.853V32.0038H164.242V25.3886H159.873V32.0038H156.738V35.6295H159.773V46.5067C159.751 47.8285 159.981 49.1424 160.45 50.3786V50.387ZM177.03 54.9994V43.9846C176.947 41.7071 177.737 39.4836 179.237 37.7658C179.927 36.9737 180.784 36.343 181.745 35.9186C182.707 35.4942 183.751 35.2865 184.802 35.3104C185.464 35.2263 186.137 35.3228 186.748 35.5894C187.359 35.8561 187.887 36.283 188.275 36.8249C188.946 38.1601 189.255 39.6475 189.171 41.1391V54.9994H193.633V40.121C193.633 34.1852 190.98 31.2173 185.676 31.2173C183.722 31.1683 181.803 31.7475 180.203 32.8696C178.822 33.7988 177.698 35.0619 176.938 36.5412H176.856L177.04 34.6136V22.589H172.579V54.9911H177.04L177.03 54.9994ZM199.956 52.0788C201.124 53.2316 202.516 54.1336 204.047 54.7295C205.577 55.3254 207.214 55.6026 208.856 55.5439C210.528 55.5355 212.186 55.2332 213.754 54.651C215.272 54.1261 216.671 53.3065 217.87 52.2395L215.988 48.9809C214.133 50.7219 211.682 51.6918 209.136 51.6929C207.095 51.7435 205.112 51.0127 203.594 49.6505C202.818 48.9228 202.2 48.0447 201.777 47.07C201.354 46.0953 201.135 45.0447 201.133 43.9825H218.066C218.168 43.3612 218.229 42.7341 218.25 42.1049C218.351 39.2726 217.401 36.5027 215.583 34.3257C214.662 33.2867 213.517 32.4686 212.235 31.9322C210.953 31.3958 209.566 31.155 208.178 31.2278C206.628 31.1818 205.086 31.4556 203.647 32.0321C202.208 32.6086 200.904 33.4754 199.816 34.5781C198.698 35.7486 197.828 37.1325 197.259 38.6468C196.69 40.161 196.434 41.7744 196.505 43.39C196.457 44.9962 196.739 46.5951 197.332 48.0889C197.926 49.5826 198.819 50.9396 199.956 52.0767V52.0788ZM203.59 36.2908C204.827 35.2061 206.427 34.6246 208.074 34.6616C208.811 34.6417 209.544 34.7742 210.228 35.0506C210.911 35.3271 211.53 35.7415 212.046 36.2679C213.163 37.4959 213.762 39.1073 213.718 40.7656H201.254C201.471 39.0427 202.3 37.4545 203.59 36.2888V36.2908ZM225.774 54.9911V45.3552C225.718 43.015 226.349 40.7095 227.59 38.7233C228.142 37.8219 228.926 37.0847 229.86 36.5882C230.795 36.0918 231.845 35.8544 232.902 35.9007C233.334 35.8865 233.765 35.9172 234.19 35.9925V31.5866C233.794 31.5329 233.394 31.5023 232.994 31.4948C231.311 31.4818 229.684 32.1048 228.441 33.2388C227.108 34.4226 226.123 35.9455 225.59 37.6448H225.498L225.636 35.9466V31.7743H221.313V54.9911H225.774ZM236.398 53.6601C237.94 54.9161 239.881 55.5818 241.871 55.5377C243.479 55.5509 245.056 55.0878 246.401 54.2067C247.719 53.3691 248.79 52.197 249.505 50.8104H249.605L249.467 52.6463V54.9869H253.648V40.3004C253.731 39.0726 253.562 37.8408 253.151 36.6807C252.739 35.5206 252.095 34.4565 251.257 33.5538C250.335 32.7325 249.258 32.1026 248.089 31.7008C246.921 31.2989 245.684 31.1331 244.45 31.2132C242.81 31.2207 241.18 31.4839 239.621 31.9934C238.219 32.3979 236.907 33.0679 235.758 33.9669L237.552 37.2254C239.435 35.8052 241.722 35.0178 244.082 34.9766C244.776 34.878 245.483 34.9418 246.147 35.1629C246.812 35.384 247.415 35.7565 247.911 36.2507C248.406 36.745 248.779 37.3474 249.001 38.0105C249.222 38.6736 249.286 39.379 249.187 40.071V40.5299H247.992C246.561 40.5253 245.132 40.6173 243.714 40.8053C242.224 41.0218 240.755 41.3673 239.324 41.8379C237.84 42.2803 236.52 43.1513 235.53 44.3413C234.558 45.5657 234.053 47.0944 234.104 48.6555C234.071 49.6107 234.261 50.5607 234.66 51.4295C235.06 52.2984 235.657 53.0622 236.404 53.6601H236.398ZM248.033 43.7467H249.183V44.6188C249.19 46.4645 248.575 48.2589 247.436 49.7131C246.928 50.4329 246.252 51.0181 245.467 51.418C244.682 51.8179 243.81 52.0204 242.928 52.0079C241.751 52.0804 240.594 51.6843 239.709 50.9064C239.344 50.5755 239.053 50.1714 238.855 49.7207C238.657 49.2699 238.556 48.7826 238.559 48.2904C238.559 45.2613 241.717 43.7467 248.033 43.7467ZM262.428 64.1702V53.6142C262.439 52.9365 262.377 52.2596 262.245 51.5948H262.337C263.081 52.8329 264.142 53.851 265.411 54.5446C266.68 55.2383 268.111 55.5825 269.557 55.5418C270.99 55.584 272.415 55.3073 273.727 54.7318C275.04 54.1563 276.207 53.2963 277.146 52.2144C279.197 49.7392 280.247 46.5879 280.089 43.3796C280.241 40.2092 279.264 37.0875 277.329 34.5677C276.433 33.4706 275.294 32.5967 274 32.0152C272.707 31.4337 271.296 31.1606 269.879 31.2173C268.257 31.1938 266.657 31.5891 265.234 32.3647C263.883 33.1008 262.779 34.2183 262.061 35.5774H261.969L262.107 33.8334V31.7681H257.967V64.1702H262.428ZM264.239 37.2192C264.835 36.5417 265.571 36.0019 266.397 35.6373C267.223 35.2727 268.119 35.0921 269.022 35.108C269.939 35.0842 270.848 35.2777 271.676 35.6726C272.503 36.0675 273.225 36.6526 273.782 37.3798C275.065 39.1231 275.707 41.2546 275.599 43.415C275.718 45.5951 275.031 47.743 273.667 49.4503C273.089 50.1562 272.358 50.7228 271.53 51.1082C270.702 51.4936 269.798 51.6877 268.884 51.6762C267.94 51.7035 267.005 51.4928 266.164 51.0636C265.324 50.6344 264.606 50.0006 264.076 49.2208C262.881 47.5403 262.26 45.5208 262.305 43.4609C262.141 41.2118 262.831 38.9832 264.239 37.2192ZM279.918 63.1959L280.469 63.5172C280.988 63.8301 281.545 64.0768 282.125 64.2515C282.851 64.4949 283.612 64.6189 284.379 64.6187C285.999 64.6388 287.584 64.149 288.909 63.2189C290.304 62.2031 291.355 60.7859 291.921 59.1571L302.867 31.7576H298.038L292.381 46.9865C292.074 47.8906 291.813 48.8097 291.599 49.7403H291.507L290.633 46.9406L284.793 31.7493H279.775L289.525 54.6969L288.376 57.3589C288.129 58.3072 287.586 59.1524 286.825 59.7714C286.064 60.3905 285.125 60.7512 284.145 60.801C283.166 60.7795 282.224 60.423 281.477 59.7913L279.918 63.1959Z" fill="white"/>
</svg>

<svg width="303" height="74" fill="none" xmlns="http://www.w3.org/2000/svg"><path d="M27.174 34.716S25.31 22.2 39.718 22.2c14.407 0 12.542 14.603 12.542 14.603s.17 6.384-12.542 18.776c-10.742 10.47-12.544 10.366-12.544 10.366" stroke="#fff" stroke-width="1.881" stroke-linecap="round" stroke-linejoin="round"/><path d="M27.12 34.735s1.856-12.536-12.487-12.536S2.145 36.821 2.145 36.821s-.168 6.392 12.488 18.8C25.326 66.104 27.12 66 27.12 66" stroke="#fff" stroke-width="1.881" stroke-linecap="round" stroke-linejoin="round"/><path d="M27.177 34.715s-2.09-6.259 2.09-8.345" stroke="#9BA2AC" stroke-width="1.881" stroke-linecap="round" stroke-linejoin="round"/><path clip-rule="evenodd" d="M25.086 26.371C40.853 29.805 37.629 7.596 37.629 7.596S17.326 16.489 25.086 26.37z" stroke="#9BA2AC" stroke-width="1.881" stroke-linecap="round" stroke-linejoin="round"/><path d="M27.178 22.198s-1.334-.755 6.271-8.345" stroke="#9BA2AC" stroke-width=".94" stroke-linecap="round" stroke-linejoin="round"/><path fill-rule="evenodd" clip-rule="evenodd" d="M73.829 54.991V34.705h5.886V32.09H73.83v-1.01a7.874 7.874 0 01.529-3.051 3.63 3.63 0 011.402-1.79 6.547 6.547 0 011.633-.735c.517-.14 1.05-.21 1.587-.208.37-.012.74.02 1.103.091v-2.753a7.282 7.282 0 00-1.425-.138c-.8 0-1.595.1-2.369.299-.897.248-1.756.619-2.552 1.1-1 .629-1.78 1.55-2.23 2.64a10.64 10.64 0 00-.852 4.498v1.055h-2.897v2.616h2.901V54.99h3.174l-.004.002zm9.658-2.96a12.246 12.246 0 0013.365 2.645c2.24-.933 4.15-2.51 5.488-4.53a12.183 12.183 0 002.027-6.812 11.394 11.394 0 00-3.554-8.537 12.607 12.607 0 00-17.316 0 11.432 11.432 0 00-3.541 8.537 11.743 11.743 0 003.53 8.697zm2.276-15.229a9.024 9.024 0 016.381-2.639 9.039 9.039 0 016.382 2.639 8.912 8.912 0 012.621 6.54 9.164 9.164 0 01-2.621 6.7 8.967 8.967 0 01-6.382 2.663 8.982 8.982 0 01-6.38-2.662 9.208 9.208 0 01-2.6-6.701 8.954 8.954 0 012.6-6.54zm24.122 15.229a12.249 12.249 0 0013.366 2.645 12.223 12.223 0 005.488-4.53 12.182 12.182 0 002.026-6.812 11.385 11.385 0 00-3.564-8.537 12.606 12.606 0 00-17.316 0 11.434 11.434 0 00-3.541 8.537 11.756 11.756 0 003.541 8.697zm2.277-15.229a9.032 9.032 0 0112.752 0 8.91 8.91 0 012.621 6.54 9.164 9.164 0 01-2.621 6.7 8.973 8.973 0 01-9.831 1.967 8.973 8.973 0 01-2.921-1.966 9.2 9.2 0 01-2.599-6.701 8.979 8.979 0 01.63-3.535 8.983 8.983 0 011.969-3.005zm30.743 18.748a8.735 8.735 0 004.731-1.235 8.706 8.706 0 003.319-3.584h.09l-.136 1.652V55h3.034V22.727h-3.136v11.428a9.8 9.8 0 00.14 1.744h-.094a7.936 7.936 0 00-3.105-3.328 8.604 8.604 0 00-4.484-1.216 9.534 9.534 0 00-7.54 3.327 12.838 12.838 0 00-2.898 8.743 13.423 13.423 0 002.737 8.762 8.973 8.973 0 007.333 3.349l.009.014zm-4.689-18.863a6.79 6.79 0 015.333-2.478 6.224 6.224 0 015.404 2.712 10.94 10.94 0 011.908 6.467 10.094 10.094 0 01-2.138 7.022 6.906 6.906 0 01-5.31 2.34 6.49 6.49 0 01-5.314-2.547 10.495 10.495 0 01-2.047-6.77 9.907 9.907 0 012.164-6.754v.008zm22.234 13.7a6.449 6.449 0 003.84 3.993c.745.319 1.525.55 2.323.688a13.43 13.43 0 002.09.16 14.374 14.374 0 001.564-.137v-3.955a5.449 5.449 0 01-1.058.092c-.392 0-.784-.03-1.172-.092a5.186 5.186 0 01-1.288-.417 3.954 3.954 0 01-1.242-.872c-.4-.447-.705-.97-.897-1.538a6.645 6.645 0 01-.368-2.318V35.623h5.611v-3.62h-5.611V25.39h-4.369v6.615h-3.135v3.626h3.035v10.877a10.426 10.426 0 00.677 3.872v.008zm16.58 4.612V43.985a8.96 8.96 0 012.207-6.22 7.166 7.166 0 015.565-2.455 3.702 3.702 0 013.473 1.515 8.538 8.538 0 01.896 4.314V55h4.462V40.121c0-5.936-2.653-8.904-7.957-8.904a9.134 9.134 0 00-5.473 1.653 9.855 9.855 0 00-3.265 3.671h-.082l.184-1.927V22.589h-4.461v32.402h4.461l-.01.008zm22.926-2.92a12.065 12.065 0 008.9 3.465 14.25 14.25 0 004.898-.893 12.178 12.178 0 004.116-2.412l-1.882-3.258a10.02 10.02 0 01-6.852 2.712 8.001 8.001 0 01-5.542-2.042 7.787 7.787 0 01-2.461-5.669h16.933c.102-.62.163-1.248.184-1.877a11.497 11.497 0 00-2.667-7.78 9.24 9.24 0 00-7.405-3.097 11.282 11.282 0 00-8.362 3.35 12.005 12.005 0 00-3.311 8.812 11.782 11.782 0 003.451 8.687v.002zm3.634-15.788a6.577 6.577 0 014.484-1.63 5.362 5.362 0 013.972 1.607 6.43 6.43 0 011.672 4.498h-12.464a7.257 7.257 0 012.336-4.477v.002zm22.184 18.7v-9.636a11.974 11.974 0 011.816-6.632 5.92 5.92 0 015.312-2.822c.432-.015.863.016 1.288.091v-4.405a10.352 10.352 0 00-1.196-.092 6.68 6.68 0 00-4.553 1.744 9.825 9.825 0 00-2.851 4.406h-.092l.138-1.698v-4.173h-4.323v23.217h4.461zm10.624-1.33a8.373 8.373 0 005.473 1.877 8.146 8.146 0 004.53-1.331 8.806 8.806 0 003.104-3.397h.1l-.138 1.836v2.34h4.181V40.3a9.018 9.018 0 00-2.391-6.746 9.314 9.314 0 00-6.807-2.34c-1.64.007-3.27.27-4.829.78a11.397 11.397 0 00-3.863 1.973l1.794 3.258a11.17 11.17 0 016.53-2.248 4.523 4.523 0 013.829 1.274 4.5 4.5 0 011.276 3.82v.459h-1.195a31.77 31.77 0 00-4.278.275c-1.49.217-2.959.562-4.39 1.033a7.854 7.854 0 00-3.794 2.503 6.592 6.592 0 00-1.426 4.315 6.139 6.139 0 002.3 5.004h-.006zm11.635-9.914h1.15v.872a8.21 8.21 0 01-1.747 5.094 5.423 5.423 0 01-4.508 2.295 4.46 4.46 0 01-3.219-1.102 3.502 3.502 0 01-1.15-2.616c0-3.029 3.158-4.543 9.474-4.543zm14.395 20.423V53.614a9.572 9.572 0 00-.183-2.02h.092a8.14 8.14 0 003.074 2.95 8.165 8.165 0 004.146.998 9.674 9.674 0 007.589-3.328 12.855 12.855 0 002.943-8.834 13.412 13.412 0 00-2.76-8.812 9.156 9.156 0 00-7.45-3.35 9.42 9.42 0 00-4.645 1.147 7.819 7.819 0 00-3.173 3.212h-.092l.138-1.744v-2.065h-4.14V64.17h4.461zm1.811-26.95a6.218 6.218 0 014.783-2.112 5.814 5.814 0 014.76 2.272 9.39 9.39 0 011.817 6.035 8.892 8.892 0 01-1.932 6.035 6.075 6.075 0 01-4.783 2.226 5.612 5.612 0 01-4.808-2.455 9.578 9.578 0 01-1.771-5.76 8.96 8.96 0 011.934-6.242zm15.679 25.976l.551.321a7.27 7.27 0 001.656.734 7.084 7.084 0 002.254.368 7.72 7.72 0 004.53-1.4 8.46 8.46 0 003.012-4.062l10.946-27.4h-4.829l-5.657 15.23a28.266 28.266 0 00-.782 2.753h-.092l-.874-2.8-5.84-15.19h-5.018l9.75 22.947-1.149 2.662a4.606 4.606 0 01-4.231 3.442 4.278 4.278 0 01-2.668-1.01l-1.559 3.405z" fill="#fff"/></svg>
